X:1
T:Concerning Hobbits - Full Version with Baseline
C:Howard Shore
Z:Merecraft of Laurelin
Q:1/4=118
M:4/4
L:1/8
K:G
.D,2 .A,2 .D,2 .A,2 |.D,2 .A,2 .D,2 z2 |d/e/(f f)(a a) f3/2 e/ f/e/ |d A,2 F2 f2 a |b3 c' c'3 a |f3 g/f/ e3 d/e/ |f2 a2 f/(e/e) d3/2e/ |d A,2 F2 f2 a |b4 z3 (a2 f2 |f4 e4) |d/e/d z2 .D,2 .A,2 |
.D,2 .A,2 .D,2 .A,2 |d/e/f FA, Ff Df |a/4 a/ e d e z/4 EA, CA, |A/B/c B,c Dd DB |
F2G,2 D2A2 |
EA, AA, cA, Ac |d/e/f Ff FA, Da |f/4g/4 f/ e Dd ec Dc/4d/4c/ |B(f f)F, Df b/ c'/ z |c'D, B,2 c'2 B,a |fA, Cg/f/ eA, Ed/e/ |f3 F, DF, z2 ff/g/ |aA, EA, eA, EA, |d/e/f FA, Ff Df |e/f/^g Cg Cg Cg |f/^g/ ^a3 F =a a2 a/a/ |
^a8 |A2 F,2 D4 |A2 F,2 D2 F,2 |B2 F,2 B,2 F,2 |B2 G,2 B,2 F,2 |G3 E G F3 |E8 |DA, FA, FA DA |CA, EA, EA EA |DB, FB, FF DF |B,G, DG, CA, EC |DA, FA, FA DA |CA, EA, EA EA |DB, FB, FF DF |B,G, DG, CA, EC |
dB, fB, df CA, |bB, DB, F,F Bc |dB, AG, dD AB, |eA, CA, e/f/g gA, |d/e/f fF, (a2 a)f/a/ |b4 z/ D/F,/ z2 D z/ f/b/ |c'2 B, c'3 B,a |f2 Eg/f/ e2 Ef/e/ |d z d z z4 |d/e/f FA, Ff Df |a/4b/4a/e de EA, CA, |
A/B/c Fc Fd DB |F2 DA E2 CF |D z D z z2 fa |c'A, EG, EA EA |DB, FB, FF DF |B,G, B,G, CA, EC |d/e/f fa a f3/2 e/ f/e/ |d4 F f2 a |b2 Dc' c'3 a |f3 g/f/ e3 d/e/ |f2 a2 f/(e/e) d3/2e/ |d4 A,2 Fg Da |
b2 D2 (a2 f2 |f4 e4) |d/e/d F2 (F4 |F2) F2 (F4 |F8) |]
%End of file
-----------------------------------------------------------------------------
Merecraft10-07-2007, 06:50 PM7. In Dreams
Slightly abridged as there is one section that I could not get to sound good at all.
